Sources/FrostedUI/Resources/Icons.xcassets/thumbDownFilled16.imageset/thumb-down-filled-16.svg

<svg width="16" height="16" viewBox="0 0 16 16" fill="none" xmlns="http://www.w3.org/2000/svg" data-fui-icon="true">
  <path
    fill-rule="evenodd"
    clip-rule="evenodd"
    d="M4.1286 9.58329H2.50004C1.71765 9.58329 1.08337 8.94905 1.08337 8.16663V3.16663C1.08337 2.3842 1.71765 1.74996 2.50004 1.74996H11.6147C12.9738 1.74996 14.1289 2.74271 14.3334 4.08626L14.8914 7.75293C15.1447 9.41734 13.8563 10.9166 12.1726 10.9166H9.55343L9.80222 12.5123C9.99956 13.778 9.01685 14.9166 7.74071 14.9166C7.21135 14.9166 6.72391 14.6213 6.48051 14.1487L4.1286 9.58329ZM3.75004 3.24996V8.08329H2.58337V3.24996H3.75004Z"
    fill="currentColor"
  />
</svg>

<svg xmlns="http://www.w3.org/2000/svg" width="16" height="16" fill="none" data-fui-icon="true" viewBox="0 0 16 16"><path fill="currentColor" fill-rule="evenodd" d="M4.129 9.583H2.5a1.417 1.417 0 0 1-1.417-1.416v-5c0-.783.635-1.417 1.417-1.417h9.115a2.75 2.75 0 0 1 2.718 2.336l.558 3.667a2.75 2.75 0 0 1-2.718 3.164h-2.62l.25 1.595a2.085 2.085 0 0 1-2.062 2.405c-.53 0-1.017-.296-1.26-.768zM3.75 3.25v4.833H2.583V3.25z" clip-rule="evenodd"/></svg>
